synths/sAAVE.svg

<svg width="42" height="42" viewBox="0 0 42 42" fill="none" xmlns="http://www.w3.org/2000/svg">
<g clip-path="url(#clip0_7277_57982)">
<mask id="mask0_7277_57982" style="mask-type:alpha" maskUnits="userSpaceOnUse" x="0" y="0" width="42" height="42">
<circle cx="21" cy="21" r="21" fill="url(#paint0_linear_7277_57982)"/>
</mask>
<g mask="url(#mask0_7277_57982)">
<circle cx="21" cy="21" r="21" fill="#34EDB3"/>
<circle cx="21" cy="21" r="18.2" fill="white"/>
</g>
<circle cx="21" cy="21" r="16.1" fill="#06061B"/>
<path d="M21 37.1C29.8918 37.1 37.1 29.8918 37.1 21C37.1 12.1082 29.8918 4.90002 21 4.90002C12.1082 4.90002 4.90002 12.1082 4.90002 21C4.90002 29.8918 12.1082 37.1 21 37.1Z" fill="url(#paint1_linear_7277_57982)"/>
<path d="M28.0167 27.3505L22.6026 14.2785C22.2966 13.6031 21.8444 13.272 21.2457 13.272H20.7669C20.1682 13.272 19.716 13.6031 19.41 14.2785L17.0556 19.9737H15.2729C15.0162 19.9747 14.7703 20.0767 14.5885 20.2578C14.4067 20.4388 14.3037 20.6841 14.3018 20.9405V20.9537C14.3037 21.2102 14.4067 21.4555 14.5885 21.6365C14.7703 21.8175 15.0162 21.9196 15.2729 21.9206H16.2305L13.9825 27.3505C13.94 27.4697 13.9175 27.595 13.916 27.7215C13.916 28.0261 14.0091 28.2645 14.1821 28.4499C14.355 28.6354 14.5944 28.7279 14.9004 28.7279C15.1013 28.7252 15.2964 28.6604 15.459 28.5425C15.6319 28.4233 15.7517 28.2511 15.8448 28.0524L18.3191 21.9204H20.0351C20.2918 21.9194 20.5377 21.8173 20.7195 21.6363C20.9013 21.4553 21.0043 21.21 21.0062 20.9535V20.927C21.0043 20.6706 20.9013 20.4253 20.7195 20.2443C20.5377 20.0633 20.2918 19.9612 20.0351 19.9602H19.1173L21.0063 15.2586L26.1544 28.0525C26.2475 28.2511 26.3673 28.4234 26.5402 28.5425C26.7028 28.6605 26.898 28.7253 27.0989 28.728C27.4049 28.728 27.6443 28.6353 27.8173 28.4498C27.9902 28.2644 28.0833 28.026 28.0833 27.7214C28.0883 27.5944 28.0656 27.4679 28.0167 27.3505Z" fill="white"/>
</g>
<defs>
<linearGradient id="paint0_linear_7277_57982" x1="21" y1="0" x2="21" y2="61.4091" gradientUnits="userSpaceOnUse">
<stop stop-color="#08021E"/>
<stop offset="1" stop-color="#1F0777"/>
</linearGradient>
<linearGradient id="paint1_linear_7277_57982" x1="34.1054" y1="12.2094" x2="10.1486" y2="32.3666" gradientUnits="userSpaceOnUse">
<stop stop-color="#B6509E"/>
<stop offset="1" stop-color="#2EBAC6"/>
</linearGradient>
<clipPath id="clip0_7277_57982">
<rect width="42" height="42" fill="white"/>
</clipPath>
</defs>
</svg>

<svg xmlns="http://www.w3.org/2000/svg" width="42" height="42" fill="none"><g clip-path="url(#a)"><mask id="c" width="42" height="42" x="0" y="0" maskUnits="userSpaceOnUse" style="mask-type:alpha"><circle cx="21" cy="21" r="21" fill="url(#b)"/></mask><g mask="url(#c)"><circle cx="21" cy="21" r="21" fill="#34EDB3"/><circle cx="21" cy="21" r="18.2" fill="#fff"/></g><circle cx="21" cy="21" r="16.1" fill="#06061B"/><path fill="url(#d)" d="M21 37.1c8.892 0 16.1-7.208 16.1-16.1 0-8.892-7.208-16.1-16.1-16.1-8.892 0-16.1 7.208-16.1 16.1 0 8.892 7.208 16.1 16.1 16.1Z"/><path fill="#fff" d="m28.017 27.35-5.414-13.072c-.306-.675-.759-1.006-1.357-1.006h-.48c-.598 0-1.05.331-1.356 1.006l-2.354 5.696h-1.783a.975.975 0 0 0-.971.966v.014a.974.974 0 0 0 .97.967h.958l-2.248 5.43c-.042.119-.064.244-.066.37 0 .305.093.544.266.729.173.185.412.278.718.278a.974.974 0 0 0 .559-.186 1.18 1.18 0 0 0 .386-.49l2.474-6.132h1.716a.975.975 0 0 0 .971-.967v-.026a.974.974 0 0 0-.97-.967h-.919l1.89-4.701 5.147 12.793c.093.2.213.371.386.49a.974.974 0 0 0 .559.186c.306 0 .545-.093.718-.278.173-.186.266-.424.266-.729a.875.875 0 0 0-.066-.37Z"/></g><defs><linearGradient id="b" x1="21" x2="21" y1="0" y2="61.409" gradientUnits="userSpaceOnUse"><stop stop-color="#08021E"/><stop offset="1" stop-color="#1F0777"/></linearGradient><linearGradient id="d" x1="34.105" x2="10.149" y1="12.209" y2="32.367" gradientUnits="userSpaceOnUse"><stop stop-color="#B6509E"/><stop offset="1" stop-color="#2EBAC6"/></linearGradient><clipPath id="a"><path fill="#fff" d="M0 0h42v42H0z"/></clipPath></defs></svg>
